assets/travel-color/TravelColor6.svg

<svg xmlns="http://www.w3.org/2000/svg" data-name="Layer 1" viewBox="0 0 128 128"><path fill="#021768" d="M33.748 46.683h-6.98a1.25 1.25 0 000 2.5h6.98a1.25 1.25 0 000-2.5zM101.309 46.683h-6.98a1.25 1.25 0 000 2.5h6.98a1.25 1.25 0 000-2.5z"/><path fill="#0053fb" d="M45.6 28.837h36.875A11.853 11.853 0 0194.328 40.69v13.277h-60.58V40.69A11.853 11.853 0 0145.6 28.837z"/><path fill="#ec3048" d="M36.122 53.967h55.832A16.334 16.334 0 01108.288 70.3v11.4a4.929 4.929 0 01-4.929 4.929H24.718a4.93 4.93 0 01-4.93-4.93V70.3a16.334 16.334 0 0116.334-16.333z"/><path fill="#021768" d="M36.25 99.163a7.77 7.77 0 01-7.77-7.77v-4.759h15.54v4.759a7.77 7.77 0 01-7.77 7.77zM91.826 99.163a7.77 7.77 0 01-7.77-7.77v-4.759H99.6v4.759a7.77 7.77 0 01-7.774 7.77z"/><circle cx="40.289" cy="74.097" r="6.541" fill="#ffaf03"/><circle cx="87.787" cy="74.097" r="6.541" fill="#ffaf03"/></svg>

<svg id="Layer_1" data-name="Layer 1" xmlns="http://www.w3.org/2000/svg" viewBox="0 0 128 128"><title>CAR</title><path d="M33.748,46.683h-6.98a1.25,1.25,0,0,0,0,2.5h6.98a1.25,1.25,0,0,0,0-2.5Z" style="fill:#021768"/><path d="M101.309,46.683h-6.98a1.25,1.25,0,0,0,0,2.5h6.98a1.25,1.25,0,0,0,0-2.5Z" style="fill:#021768"/><path d="M45.6,28.837H82.475A11.853,11.853,0,0,1,94.328,40.69V53.967a0,0,0,0,1,0,0H33.748a0,0,0,0,1,0,0V40.69A11.853,11.853,0,0,1,45.6,28.837Z" style="fill:#0053fb"/><path d="M36.122,53.967H91.954A16.334,16.334,0,0,1,108.288,70.3V81.7a4.929,4.929,0,0,1-4.929,4.929H24.718a4.93,4.93,0,0,1-4.93-4.93V70.3A16.334,16.334,0,0,1,36.122,53.967Z" style="fill:#ec3048"/><path d="M36.25,99.163h0a7.77,7.77,0,0,1-7.77-7.77V86.634H44.02v4.759A7.77,7.77,0,0,1,36.25,99.163Z" style="fill:#021768"/><path d="M91.826,99.163h0a7.77,7.77,0,0,1-7.77-7.77V86.634H99.6v4.759A7.77,7.77,0,0,1,91.826,99.163Z" style="fill:#021768"/><circle cx="40.289" cy="74.097" r="6.541" style="fill:#ffaf03"/><circle cx="87.787" cy="74.097" r="6.541" style="fill:#ffaf03"/></svg>
